!!!COM: Scriabin, Alexander
!!!OTL@@FR: Nocturne en fa dièse mineur
!!!OTL@@EN: Nocturne in F# Minor
!!!OPR@@FR: 2 Nocturnes
!!!OPR@@EN: 2 Nocturnes
!!!OPS: 5
!!!ONM: 1
!!!OMD: Andante.
!!!ODT: 1890
!!!AGN: Nocturne
**kern	**kern	**dynam
*staff2	*staff1	*staff1/2
*Ipiano	*Ipiano	*
*clefF4	*clefG2	*
*k[f#c#g#]	*k[f#c#g#]	*
*f#:	*f#:	*
*M3/4	*M3/4	*
=1	=1	=1
*	*	*^
!	!	!LO:DY:a=2	!LO:DY:a=1
4FF#	[4f#	p	mf
*	*	*v	*v
4C# 4A 4c#	12f#L]	.
.	12g#	.
.	12aJ	.
4A 4f# 4a	12cc#L	.
.	12b#X	.
.	12eeJ	.
=2	=2	=2
*^	*^	*
4r	4r	4rc	12ddL	.
.	.	.	12cc#	.
.	.	.	12aJ	.
4D	12AL	12c#L	4f#	.
.	12G#	12B	.	.
.	12F#J	12AJ	.	.
4GG#	4D	12AL	4B	.
.	.	12G#	.	.
.	.	12F#J	.	.
*v	*v	*	*	*
=3	=3	=3	=3
4CC#	4E#X	12c#L	.
.	.	12B#X	.
.	.	12c#J	.
4C# 4B	4rF	4d	.
4r	4rF	12e#XL	.
.	.	12a	.
.	.	12g#J	.
!!LO:LB:g=original
=4	=4	=4	=4
*^	*	*	*
2.FF# 2.D	12AL	[4B [4d	12f#L	.
.	12.G#	.	12.g#	.
.	24F#Jk	.	24aJk	.
.	12F#L	12dL]	4B_ [4a	.
.	12E	12e	.	.
.	12DJ	12f#J	.	.
.	4D	4B] 4f#	12aL]	.
.	.	.	12g#	.
.	.	.	12aJ	.
*v	*v	*	*	*
=5	=5	=5	=5
4FF# 4C#	4A 4f#	[4cc#	.
4C# 4A 4c#	4rc	12cc#L]	pp
.	.	12gg#	.
.	.	12ff#J	.
4A 4f# 4a	4rc	12cc#L	.
.	.	12b#X	.
.	.	12eeJ	.
=6	=6	=6	=6
*^	*	*	*
4r	4r	4rc	12ddL	.
.	.	.	12cc#	.
.	.	.	12aJ	.
4D	2A	12c#L	[4f#	.
.	.	12B#X	.	.
.	.	12c#J	.	.
4D#X	.	4c#	12f#L]	.
.	.	.	12g#	.
.	.	.	12aJ	.
*v	*v	*	*	*
=7	=7	=7	=7
*	*	*^	*
4EE	2.d\	4f#	12cc#L	.
.	.	.	12b	.
.	.	.	12cc#J	.
[4E	.	4f##X	4ee	.
4E] 4e	.	4g#	12cc#L	.
.	.	.	12b#X	.
.	.	.	12gg#J	.
*	*	*v	*v	*
!!LO:LB:g=original
=8	=8	=8	=8
4AA 4D#X	4a 4cc#	12ff#L	.
.	.	12ffn	.
.	.	12aaJ	.
4E 4c#	4ryy	12ee/	.
.	.	12eL	.
.	.	12f#J	.
4r	4ryy	12g#L	.
.	.	12a	.
.	.	12bJ	.
*	*v	*v	*
=9	=9	=9
4AAA	12cc#L	.
.	12b#X	.
.	12cc#J	.
4E 4c# 4e	12eeL	.
.	12cc#	.
.	12bnJ	.
4E#X 4c# 4e#X	12aL	.
.	12g#	.
.	12aJ	.
=10	=10	=10
4F# 4c# 4f#	12aaL	.
.	12gg#	.
.	12ff#J	.
4Gn 4A 4c# 4gn	12eeL	.
.	12eee	.
.	12ccc#J	.
8r	16bbLL	.
.	16aa	.
16r	16.ee	.
16AA	.	.
.	32ee#XJJk	.
!!LO:LB:g=original
=11	=11	=11
4DD	12ff#L	.
.	12ee#X	.
.	12ff#J	.
4A 4f# 4a	12aaL	.
.	12ff#	.
.	12eenJ	.
4cn 4f# 4a	12ddL	.
.	12a	.
.	12a#XJ	.
=12	=12	=12
*^	*^	*
4ryy	4GGn 4D 4Gn	12BL	[4b	.
.	.	12gn	.	.
.	.	12f#J	.	.
2C#	6B	2e#X	12bL]	.
.	.	.	12dd	.
.	12G#X	.	12cc#J	.
.	8dL	.	16b#XLL	.
.	.	.	16bn	.
.	16.c#L	.	16.a	.
.	32BJJk	.	32gJJk	.
*	*	*v	*v	*
*v	*v	*	*
=13	=13	=13
4FF#	[4f#	.
4C# 4A 4c#	12f#L]	.
.	12g#	.
.	12aJ	.
4A 4f# 4a	12cc#L	.
.	12b#X	.
.	12eeJ	.
!!LO:LB:g=original
=14	=14	=14
*^	*^	*
4r	4r	4rc	12ddL	.
.	.	.	12cc#	.
.	.	.	12aJ	.
4D	12AL	12c#L	4f#	.
.	12G#	12B	.	.
.	12F#J	12AJ	.	.
4GG#	4D	12AL	4B	.
.	.	12G#	.	.
.	.	12F#J	.	.
*v	*v	*	*	*
=15	=15	=15	=15
4CC#	4E#X	12c#L	.
.	.	12B#X	.
.	.	12c#J	.
4C# 4Bn	4rF	4d	.
4r	4rF	12e#XL	.
.	.	12a	.
.	.	12g#J	.
=16	=16	=16	=16
*^	*	*	*
2.FF# 2.D	12AL	[4B [4d	12f#L	.
.	12.G#	.	12.g#	.
.	24F#Jk	.	24aJk	.
.	12F#L	12dL]	4B_ [4a	.
.	12E	12e	.	.
.	12DJ	12f#J	.	.
.	4D	4B] 4f#	12aL]	.
.	.	.	12g#	.
.	.	.	12aJ	.
=17	=17	=17	=17	=17
2FF# 2C#	4ryy	4B 4e#X 4a	12cc#L	.
.	.	.	12dd#X	.
.	.	.	12ee#XJ	.
.	4A	4c#	12ff#L	.
.	.	.	12cc#	.
.	.	.	12aJ	.
4rEE	4rc	4rA	12g#L	.
.	.	.	12f#J	.
.	.	.	12raa	.
*	*	*v	*v	*
*v	*v	*	*
*kcancel	*kcancel	*
!!LO:LB:g=original
=18	=18	=18
*k[f#c#]	*k[f#c#]	*
*M3/8	*M3/8	*
24AALL	8F# 8d 8f#	p
24GG#X	.	.
24AAJJ	.	.
24BB-XLL	4G 4d 4f#	.
24AA	.	.
24BB-JJ	.	.
24DLL	.	.
24Cn	.	.
24BB-JJ	.	.
=19	=19	=19
*	*^	*
24AALL	24F#LL	8d 8f#	.
24BB-X	24d	.	.
24AAJJ	24cnJJ	.	.
24GGLL	4B-X 4d	8f#L	.
24DD	.	.	.
24GGJJ	.	.	.
24DDLL	.	8eJ	.
24GG	.	.	.
24DDJJ	.	.	.
=20	=20	=20	=20
24DDLL	8ryy	8Fn 8B-X 8fn	.
24BB-X	.	.	.
24FnJJ	.	.	.
24GnLL	4B- 4d	16dLL	<
24A	.	.	(
.	.	16f	(
24GJJ	.	.	(
24FLL	.	16b-X	[ >
24D	.	.	)
.	.	16aJJ	)
24FJJ	.	.	)
=21	=21	=21	=21
24DLL	8Bn 8fn	8g#X	]
24EE	.	.	.
24BBJJ	.	.	.
24FnLL	24dLL	8g# 8a#X	.
24E	24c#	.	<
24FJJ	24dJJ	.	.
24FLL	8d 8g#	16bLL	.
24E	.	.	.
.	.	16b#XJJ	.
24FJJ	.	.	.
*	*v	*v	*
!!LO:LB:g=original
=22	=22	=22
24ELL	8c# 8a 8cc#	p
24D#X	.	.
24EJJ	.	.
24FnLL	4d 4a 4cc#	.
24E	.	.
24FJJ	.	.
24ALL	.	<
24G	.	(
24FJJ	.	(
=23	=23	=23
*	*^	*
24ELL	24c#LL	8a 8cc#	(
24Fn	24a	.	(
24EJJ	24gJJ	.	(
24DLL	4fn 4a	8cc#L	(
24AA	.	.	(
24DJJ	.	.	(
24AALL	.	8bJ	(
24D	.	.	(
24AAJJ	.	.	[
=24	=24	=24	=24
24AALL	8ryy	8cn 8fn 8ccn	pp
24Fn	.	.	.
24cnJJ	.	.	.
24dnLL	4f 4a	16aLL	.
24e	.	.	.
.	.	16cc	.
24dJJ	.	.	.
24cLL	.	16ffn	<
24A	.	.	(
.	.	16eeJJ	(
24cJJ	.	.	(
=25	=25	=25	=25
24ALL	8ryy	8f#X 8ccn 8dd#X	(
24BB	.	.	(
24F#JJ	.	.	(
24cnLL	8a 8dd#	16ee#XLL	(
24B	.	.	(
.	.	16ff#	(
24cJJ	.	.	(
24gLL	8a 8dd#	16bb	(
24f#	.	.	(
.	.	16bbJJ	(
24fnJJ	.	.	(
!!LO:LB:g=original
=26	=26	=26	=26
24fnLL	4a 4ddn	[8bb	(
24B	.	.	(
24fJJ	.	.	(
8B	.	24bbLL]	[
.	.	24gg#X	.
.	.	24aaJJ	.
8r	8rf	24eeeLL	<
.	.	24ddd	[ >
.	.	24ffnJJ	]
*	*clefF4	*	*
=27	=27	=27	=27
*^	*	*	*
24AALL	8AA	24ALL	8A	pp
24GG	.	24G	.	.
24FFnJJ	.	24FnJJ	.	.
8FF	24BB-XLL	8F	24B-XLL	.
.	24Cn	.	24cn	.
.	24BB-JJ	.	24B-JJ	.
8FF	24AALL	8F	24ALL	.
.	24BB-	.	24B-	.
.	24CJJ	.	24cJJ	.
=28	=28	=28	=28	=28
8FFn	24DLL	8Fn	24dLL	.
.	24Cn	.	24cn	.
.	24BB-XJJ	.	24B-XJJ	.
*	*	*clefG2	*clefG2	*
8BB-	24FnLL	8B-X	24fnLL	.
.	24G	.	24g	.
.	24FJJ	.	24fJJ	.
8rFF	24ELL	8rA	24eLL	.
.	24F	.	24f	.
.	24AJJ	.	24aJJ	.
*v	*v	*	*	*
=29	=29	=29	=29
24DLL	8b-X	8ffn	.
24B-X	.	.	.
24fnJJ	.	.	.
24gLL	4b- 4dd	16ddLL	.
24a	.	.	.
.	.	16ff	.
24gJJ	.	.	.
24fLL	.	16bb-X	.
24d	.	.	.
.	.	16aaJJ	.
24fJJ	.	.	.
!!LO:LB:g=original
=30	=30	=30	=30
24dLL	8bn	8ffn 8gg#X	.
24E	.	.	.
24BJJ	.	.	.
24fn>LL	8dd 8gg#	16aa#XLL	.
24e>	.	.	.
.	.	16bbJJ	.
24f>JJ	.	.	.
24cc#>LL	8dd 8gg#	16eeeLL	<
24b>	.	.	.
.	.	16eeeJJ	.
24b-X>JJ	.	.	.
=31	=31	=31	=31
24b-X>LL	4dd 4ggn	[8eee	.
24e>	.	.	.
24b->JJ	.	.	.
8e>	.	24eeeLL]	.
.	.	24ccc#X	.
.	.	24dddJJ	.
8r	8rf	24aaaLL	<
.	.	24ggg	[ >
.	.	24bb-XJJ	]
=32	=32	=32	=32
*^	*	*	*
24DLL	8D	24dLL	8d	pp
24Cn	.	24cn	.	.
24BB-XJJ	.	24B-XJJ	.	.
8BB-	24E-XLL	8B-	24e-XLL	.
.	24Fn	.	24fn	.
.	24E-JJ	.	24e-JJ	.
8BB-	24DLL	8B-	24dLL	.
.	24E-	.	24e-	.
.	24FJJ	.	24fJJ	.
=33	=33	=33	=33	=33
*	*^	*	*	*
8BB-X\	24GLL	8G	8B-X	24gLL	.
.	24Fn	.	.	24fn	.
.	24E-XJJ	.	.	24e-XJJ	.
*	*v	*v	*	*	*
8E-	24B-XLL	8e-	24b-XLL	.
.	24cn	.	24ccn	.
.	24B-JJ	.	24b-JJ	.
8rEE	24ALL	8rc	24aLL	.
.	24B-	.	24b-	.
.	24dJJ	.	24ddJJ	.
*v	*v	*	*	*
*clefG2	*	*	*
!!LO:LB:g=original
=34	=34	=34	=34
24GLL	8ryy	8ee-X 8bb-X	.
24e-X	.	.	.
24b-XJJ	.	.	.
24ccnLL	4ee-	16ggLL	.
24dd	.	.	.
.	.	16bb-	.
24ccJJ	.	.	.
24b-LL	.	16eee-X	.
24g	.	.	.
.	.	16dddJJ	.
24b-JJ	.	.	.
*	*v	*v	*
*clefF4	*	*
=35	=35	=35
24GGLL	8ee-X 8bb-X 8ddd-X	.
24E-X	.	.
24d-XJJ	.	.
24fnLL	16b-XLL	.
24g	.	.
.	16dd-XJJ	.
24fJJ	.	.
24e-XLL	24ffnLL	.
24B-X	24ee-	.
24e-JJ	24dd-JJ	.
=36	=36	=36
24AA-XLL	8e-XL 8ccn	.
24E-X	.	.
24cnJJ	.	.
24fnLL	8a-X	.
24g	.	.
24fJJ	.	.
24e-XLL	8gJ	.
24f	.	.
24e-JJ	.	.
=37	=37	=37
24e-XLL	8f#X	.
24D	.	.
24AJJ	.	.
24e-LL	24ccnLL	<
24a>	24ff#	(
24ee-X>JJ	24cccnJJ	[ sf
8ee->	8ccc	.
!!LO:LB:g=original
=38	=38	=38
24AA-XLL	8e-XL 8ccn	.
24E-X	.	.
24cnJJ	.	.
24fnLL	8a-X	.
24g	.	.
24fJJ	.	.
24e-XLL	8gJ	.
24f	.	.
24e-JJ	.	.
=39	=39	=39
24e-XLL	8f#X	.
24D	.	.
24AJJ	.	.
24e-LL	24ccnLL	<
24a>	24ff#	(
24ee-X>JJ	24cccnJJ	[ sf
8ee->	8ccc	.
=40	=40	=40
24GGLL	8dL 8b	mf
24D	.	.
24BJJ	.	.
24eLL	8g	.
24f#	.	.
24eJJ	.	.
24dLL	8f#J	>
24e	.	.
24dJJ	.	.
=41	=41	=41
*	*^	*
24dLL	8f# 8b	8ff#	p
24G#X	.	.	.
24dJJ	.	.	.
8b>	4ryy	24ff#LL	.
.	.	24ff#	.
.	.	24ff#JJ	.
8r	.	24ff#/LL	.
.	.	24ee	.
.	.	24ddJJ	.
!!LO:LB:g=original
=42	=42	=42	=42
*^	*	*	*
24G#XLL	4.B 4.d	4.e#X	24ddLL	p
24C#	.	.	24cc#	.
24G#JJ	.	.	24bJJ	.
24C#LL	.	.	8bL	.
24G#	.	.	.	.
24C#JJ	.	.	.	.
24G#LL	.	.	8bJ	.
24C#	.	.	.	.
24G#JJ	.	.	.	.
*v	*v	*	*	*
=43	=43	=43	=43
24ALL	4.B 4.d	8b	.
24G#X	.	.	.
24F#JJ	.	.	.
24F#LL	.	4f#	.
24C#	.	.	.
24F#JJ	.	.	.
24C#LL	.	.	.
24F#	.	.	.
24C#JJ	.	.	.
=44	=44	=44	=44
*^	*	*	*
24G#XLL	4.B 4.d	4.e#X	24ddLL	.
24C#	.	.	24cc#	.
24G#JJ	.	.	24bJJ	.
24C#LL	.	.	8bL	.
24G#	.	.	.	.
24C#JJ	.	.	.	.
24G#LL	.	.	8bJ	.
24C#	.	.	.	.
24G#JJ	.	.	.	.
*v	*v	*	*	*
=45	=45	=45	=45
24ALL	4.B 4.d	8b	.
24G#X	.	.	.
24F#JJ	.	.	.
24F#LL	.	24f#LL	<
24C#	.	24f##X	.
24F#JJ	.	24g#XJJ	.
24C#LL	.	16cc#LL	.
24F#	.	.	.
.	.	16bJJ	.
24C#JJ	.	.	.
!!LO:LB:g=original
=46	=46	=46	=46
*^	*	*	*
24FF#LL	4.FF# 4.F#	4.d 4.cc#	24bLL	.
24CC#	.	.	24a	.
24FF#JJ	.	.	24g#XJJ	.
24CC#LL	.	.	8g#L	.
24FF#	.	.	.	.
24CC#JJ	.	.	.	.
24FF#LL	.	.	8g#J	.
24CC#	.	.	.	.
24FF#JJ	.	.	.	.
=47	=47	=47	=47	=47
24EE#XLL	4.EE#X 4.E#X	24dLL	4.g#X 4.cc#	.
24CC#	.	24c#	.	.
24EE#JJ	.	24BJJ	.	.
24CC#LL	.	4B	.	.
24EE#	.	.	.	.
24CC#JJ	.	.	.	.
24EE#LL	.	.	.	.
24CC#	.	.	.	.
24EE#JJ	.	.	.	.
=48	=48	=48	=48	=48
24BBLL	4.BB 4.B	4.gn 4.ff#	24eeLL	f
24CC#	.	.	24dd	.
24BBJJ	.	.	24cc#JJ	.
24CC#LL	.	.	8cc#L	.
24BB	.	.	.	.
24CC#JJ	.	.	.	.
24BBLL	.	.	8cc#J	.
24CC#	.	.	.	.
24BBJJ	.	.	.	.
=49	=49	=49	=49	=49
24AA#LL	4.AA#X 4.A#X	24gLL	4.cc# 4.ff#	.
24CC#	.	24f#	.	.
24AA#JJ	.	24eJJ	.	.
24CC#LL	.	4e	.	.
24AA#	.	.	.	.
24CC#JJ	.	.	.	.
24AA#LL	.	.	.	<
24CC#	.	.	.	.
24AA#JJ	.	.	.	.
!!LO:LB:g=original
=50	=50	=50	=50	=50
24rEE	4.Gn 4.B 4.d 4.gn	4ggn/	24ddLL 24ddd\	ff
24CC#LL	.	.	24cc# 24ccc#	.
24C#JJ	.	.	24bJJ 24bb	.
24CC#LL	.	.	8b 8bb\	.
24C#	.	.	.	.
24CC#JJ	.	.	.	.
24C#LL	.	8ff#/	8ryy	.
24CC#	.	.	.	.
24C#JJ	.	.	.	.
*	*	*v	*v	*
=51	=51	=51	=51
24rEE	4.G#X 4.B 4.d 4.g#X	4.b 4.ee#X 4.bb	.
24CC#LL	.	.	.
24C#JJ	.	.	.
24CC#LL	.	.	.
24C#	.	.	.
24CC#JJ	.	.	.
24C#LL	.	.	.
24CC#	.	.	.
24C#JJ	.	.	.
=52	=52	=52	=52
*	*	*^	*
24rEE	4.Gn 4.B 4.d 4.gn	4ggn/	24ddLL 24ddd\	.
24CC#LL	.	.	24cc# 24ccc#	.
24C#JJ	.	.	24bJJ 24bb	.
24CC#LL	.	.	8b 8bb\	.
24C#	.	.	.	.
24CC#JJ	.	.	.	.
24C#LL	.	8ff#/	8ryy	.
24CC#	.	.	.	.
24C#JJ	.	.	.	.
*	*	*v	*v	*
=53	=53	=53	=53
24rEE	4.G#X 4.B 4.d 4.g#X	4.b 4.ee#X 4.bb	.
24CC#LL	.	.	.
24C#JJ	.	.	.
24CC#LL	.	.	.
24C#	.	.	.
24CC#JJ	.	.	.
8C#	.	.	.
*v	*v	*	*
!!LO:LB:g=original
=54	=54	=54
*k[f#c#g#]	*k[f#c#g#]	*
*M3/4	*M3/4	*
*	*^	*
2.GGn 2.D 2.Gn	2.B 2.gn	12ddL	mf
.	.	12cc#	.
.	.	12bJ	.
.	.	4b	.
.	.	4b	.
=55	=55	=55	=55
2.GG#X 2.D 2.F#	2.B 2.d	8.bL	.
.	.	16f#Jk	.
.	.	2f#	.
=56	=56	=56	=56
*^	*	*	*
2.GG#X 2.D	2.F# 2.B-X	12f#L	2.f# 2.b-X 2.dd	.
.	.	12e	.	.
.	.	12dJ	.	.
.	.	4d	.	.
.	.	4d	.	.
*v	*v	*	*	*
=57	=57	=57	=57
2.AA 2.D 2.F# 2.A	8.dL	2.f# 2.a 2.dd	.
.	16AJk	.	.
.	2A	.	.
=58	=58	=58	=58
8qAAA#X 8qAA#X	.	.	.
2.F# 2.A#X 2.d	2.a#X	12f#L 12ff#	.
.	.	12e 12ee	.
.	.	12dJ 12dd	.
.	.	4d 4dd	.
.	.	4d 4dd	.
=59	=59	=59	=59
8.BBL 8.F# 8.B	2.d 2.f#	8.ddL	.
[16CnJk [16F# [16A	.	16aJk	.
2C] 2F#] 2A]	.	2a	.
*	*v	*v	*
=60	=60	=60
4C# 4A	4c# [4f# 4cc#	.
4r	12f#L]	.
.	12g#	.
.	12aJ	.
4r	12cc#L	.
.	12b#X	.
.	12eeJ	.
=61	=61	=61
*	*^	*
4r	4rc	8ddL	.
.	.	8cc#J	.
2C# 2B	2e#X 2a	4.cc#	.
.	.	8c#	.
*	*v	*v	*
!!LO:LB:g=original
=62	=62	=62
12FF#L	[4f#	p
12C#	.	.
12AJ	.	.
4c#	12f#L]	.
.	12g#	.
.	12aJ	.
4A 4f# 4a	12cc#L	.
.	12b#X	.
.	12eeJ	.
=63	=63	=63
*^	*^	*
4r	4r	4rc	12ddL	.
.	.	.	12cc#	.
.	.	.	12aJ	.
4D	12AL	12c#L	4f#	.
.	12G#	12B	.	.
.	12F#J	12AJ	.	.
4GG#	4D	12AL	4B	.
.	.	12G#	.	.
.	.	12F#J	.	.
*v	*v	*	*	*
=64	=64	=64	=64
4CC#	4E#X	12c#L	.
.	.	12B#X	.
.	.	12c#J	.
4C# 4Bn	4rF	4d	.
4r	4rF	12e#XL	.
.	.	12a	.
.	.	12g#J	.
=65	=65	=65	=65
*^	*	*	*
2.FF# 2.D	12AL	[4B [4d	12f#L	.
.	12.G#	.	12.g#	.
.	24F#Jk	.	24aJk	.
.	12F#L	12dL]	4B_ [4a	.
.	12E	12e	.	.
.	12DJ	12f#J	.	.
.	4D	4B] 4f#	12aL]	.
.	.	.	12g#	.
.	.	.	12aJ	.
*v	*v	*	*	*
!!LO:LB:g=original
=66	=66	=66	=66
4FF# 4C#	4A 4f#	[4cc#	.
4C# 4A 4c#	4rc	12cc#L]	pp
.	.	12gg#	.
.	.	12ff#J	.
4A 4f# 4a	4rc	12cc#L	.
.	.	12b#X	.
.	.	12eeJ	.
=67	=67	=67	=67
*^	*	*	*
4r	4r	4rc	12ddL	.
.	.	.	12cc#	.
.	.	.	12aJ	.
4D	2A	12c#L	[4f#	.
.	.	12B#X	.	.
.	.	12c#J	.	.
4D#X	.	4c#	12f#L]	.
.	.	.	12g#	.
.	.	.	12aJ	.
*v	*v	*	*	*
=68	=68	=68	=68
*	*	*^	*
4EE	2.d\	4f#	12cc#L	.
.	.	.	12b	.
.	.	.	12cc#J	.
[4E	.	4f##X	4ee	.
4E] 4e	.	4g#	12cc#L	.
.	.	.	12b#X	.
.	.	.	12gg#J	.
*	*	*v	*v	*
=69	=69	=69	=69
4AA 4D#X	4a 4cc#	12ff#L	.
.	.	12ffn	.
.	.	12aaJ	.
4E 4c#	4ryy	12ee	.
.	.	12eL	.
.	.	12f#J	.
4r	4ryy	12g#L	.
.	.	12a	.
.	.	12bJ	.
*	*v	*v	*
!!LO:LB:g=original
=70	=70	=70
4AAA	12cc#L	.
.	12b#X	.
.	12cc#J	.
4E 4c# 4e	12eeL	.
.	12cc#	.
.	12bnJ	.
4E#X 4c# 4e#X	12aL	.
.	12g#	.
.	12aJ	.
=71	=71	=71
4F# 4c# 4f#	12aaL	.
.	12gg#	.
.	12ff#J	.
4Gn 4A 4c# 4gn	12eeL	.
.	12eee	.
.	12ccc#J	.
8r	16bbLL	.
.	16aa	.
16r	16.ee	.
16AA	.	.
.	32ee#XJJk	.
=72	=72	=72
4DD	12ff#L	.
.	12ee#X	.
.	12ff#J	.
4A 4f# 4a	12aaL	.
.	12ff#	.
.	12eenJ	.
4cn 4f# 4a	12ddL	.
.	12a	.
.	12a#XJ	.
=73	=73	=73
*^	*^	*
4ryy	4GGn 4D 4Gn	12BL	[4b	.
.	.	12gn	.	.
.	.	12f#J	.	.
2C#	6B	2e#X	12bL]	.
.	.	.	12dd	.
!	!	!	!	!LO:HP:b=2
.	12G#X	.	12cc#J	<
.	8dL	.	16b#XLL	[
.	.	.	16bn	.
!	!	!	!	!LO:HP:b=2
.	16.c#L	.	16.a	>
.	32BJJk	.	32g#JJk	]
*	*	*v	*v	*
*v	*v	*	*
!!LO:LB:g=original
=74	=74	=74
4FF#	[4f#	.
4C# 4A 4c#	12f#L]	.
.	12g#	.
.	12aJ	.
4A 4f# 4a	12cc#L	.
.	12b#X	.
.	12eeJ	.
=75	=75	=75
*^	*^	*
4r	4r	4rc	12ddL	.
.	.	.	12cc#	.
.	.	.	12aJ	.
4D	12AL	12c#L	4f#	.
.	12G#	12B	.	.
.	12F#J	12AJ	.	.
4GG#	4D	12AL	4B	.
.	.	12G#	.	.
.	.	12F#J	.	.
*v	*v	*	*	*
=76	=76	=76	=76
4CC#	4E#X	12c#L	.
.	.	12B#X	.
.	.	12c#J	.
4C# 4Bn	4rF	4d	.
4r	4rF	12e#XL	.
.	.	12a	.
.	.	12g#J	.
=77	=77	=77	=77
*^	*	*	*
2.FF# 2.D	12AL	[4B [4d	12f#L	.
.	12.G#	.	12.g#	.
.	24F#Jk	.	24aJk	.
.	12F#L	12dL]	4B_ [4a	.
.	12E	12e	.	.
.	12DJ	12f#J	.	.
.	4D	4B] 4f#	12aL]	.
.	.	.	12g#	.
.	.	.	12aJ	.
!!LO:LB:g=original
=78	=78	=78	=78	=78
8rEE	2.C#	2B 2e#X 2a	12cc#L	.
.	.	.	12dd#X	.
4FF#	.	.	.	.
.	.	.	12ee#XJ	.
.	.	.	4ee#	.
4FF#	.	.	.	.
.	.	4B	4e# 4g#	.
[8FF#	.	.	.	.
=79	=79	=79	=79	=79
*^	*	*	*	*
4.FF#\]	2.BB#X/	12F#L	12dL	2.A 2.a	.
.	.	12E	12e	.	.
.	.	12DJ	12f#J	.	.
.	.	2D	2f#	.	.
4FF#\	.	.	.	.	.
8FF#\	.	.	.	.	.
*v	*v	*	*	*	*
=80	=80	=80	=80	=80
8rEE	2.C#	2B 2e#X 2a	12cc#L	.
.	.	.	12dd#X	.
4FF#	.	.	.	.
.	.	.	12ee#XJ	.
.	.	.	4ee#	.
4FF#	.	.	.	.
.	.	4B	4e# 4g#	.
[8FF#	.	.	.	.
=81	=81	=81	=81	=81
*^	*	*	*	*
4.FF#\]	2BB#X	12F#L	12dL	2A 2a	.
.	.	12E	12en	.	.
.	.	12DJ	12f#J	.	.
.	.	4D	4f#	.	.
4FF#\	.	.	.	.	.
.	4C#	4C#	4ryy	4B 4e#X 4a 4cc#	.
[8FF#\	.	.	.	.	.
*	*	*	*v	*v	*
*	*v	*v	*	*
=82	=82	=82	=82
8FF#]	4D 4G#X	4B#X 4f# 4b#X	.
4FF#	.	.	.
.	4D 4G#	4B# 4f# 4b#	.
4FF#	.	.	.
.	4D 4G#	4B# 4f# 4b#	.
[8FF#	.	.	.
*v	*v	*	*
=83	=83	=83
*	*^	*
2.FF#] 2.C# 2.A	2.f# 2.a	8.ff#L	.
.	.	16cc#Jk	.
.	.	2cc#	.
*	*v	*v	*
==	==	==
*-	*-	*-
!!!system-decoration: {(*)}
!!!filter: flipper -a
!!!RDF**kern: < = below
!!!RDF**kern: > = above
!!!RDF**dynam: > = dim.
!!!ENC: Bryan Jacob Bell
!!!END: November 2021 to April 2022
!!!PED: P. Jurgenson
!!!URL-pdf: https://github.com/bel28kent/Mysterium/blob/main/reference_editions/op05.pdf
